cssgg/edit-noise.svg

<svg
  width="24"
  height="24"
  viewBox="0 0 24 24"
  fill="none"
  xmlns="http://www.w3.org/2000/svg"
>
  <path
    d="M10.4044 17.7657C10.419 17.7803 10.4329 17.7953 10.446 17.8108C10.1948 17.7439 9.95005 17.661 9.71293 17.5634C9.95429 17.5106 10.2167 17.578 10.4044 17.7657Z"
    fill="currentColor"
  />
  <path
    d="M8.43574 16.705C8.40862 16.7321 8.37994 16.7567 8.34999 16.7788C7.95661 16.4775 7.60163 16.1285 7.29364 15.7406C7.31765 15.7068 7.3448 15.6746 7.37508 15.6443C7.66797 15.3514 8.14285 15.3514 8.43574 15.6443C8.72863 15.9372 8.72863 16.4121 8.43574 16.705Z"
    fill="currentColor"
  />
  <path
    d="M6.37104 13.6475C6.59701 13.8735 6.64864 14.2077 6.52594 14.4832C6.38527 14.1723 6.27034 13.8472 6.18387 13.5107C6.25129 13.5454 6.31455 13.591 6.37104 13.6475Z"
    fill="currentColor"
  />
  <path
    d="M6.37104 10.6753C6.29401 10.7523 6.2044 10.8091 6.10883 10.8456C6.18637 10.4523 6.30234 10.0728 6.45268 9.71119C6.66079 10.004 6.63357 10.4128 6.37104 10.6753Z"
    fill="currentColor"
  />
  <path
    d="M7.37508 8.70669C7.28995 8.62156 7.22957 8.52106 7.19392 8.41413C7.45907 8.06093 7.76228 7.73793 8.09747 7.45124C8.22139 7.48394 8.33858 7.54887 8.43574 7.64603C8.72863 7.93892 8.72863 8.41379 8.43574 8.70669C8.14285 8.99958 7.66797 8.99958 7.37508 8.70669Z"
    fill="currentColor"
  />
  <path
    d="M9.34371 6.76662C9.31335 6.73627 9.28614 6.70396 9.26208 6.6701C9.6881 6.45171 10.1437 6.28277 10.6212 6.17088C10.6397 6.38399 10.5675 6.60352 10.4044 6.76662C10.1115 7.05952 9.6366 7.05952 9.34371 6.76662Z"
    fill="currentColor"
  />
  <path
    d="M13.2872 17.8734C13.5967 17.8055 13.8973 17.7136 14.1868 17.6C13.9165 17.4914 13.5957 17.5466 13.3766 17.7657C13.3429 17.7993 13.3131 17.8354 13.2872 17.8734Z"
    fill="currentColor"
  />
  <path
    d="M15.5312 16.8608C15.935 16.5658 16.3005 16.2216 16.619 15.8369C16.6005 15.8133 16.5803 15.7906 16.5586 15.7688C16.2657 15.4759 15.7908 15.4759 15.4979 15.7688C15.205 16.0617 15.205 16.5366 15.4979 16.8295C15.5088 16.8403 15.5199 16.8508 15.5312 16.8608Z"
    fill="currentColor"
  />
  <path
    d="M17.3654 14.6921C17.5637 14.2953 17.7194 13.8735 17.8264 13.4326C17.6636 13.451 17.5058 13.5227 17.3809 13.6475C17.0933 13.9351 17.0881 14.3982 17.3654 14.6921Z"
    fill="currentColor"
  />
  <path
    d="M17.8911 10.8934C17.8032 10.4272 17.6613 9.98016 17.4722 9.55885C17.4507 9.57609 17.4299 9.59469 17.4099 9.61465C17.117 9.90755 17.117 10.3824 17.4099 10.6753C17.5439 10.8093 17.7159 10.882 17.8911 10.8934Z"
    fill="currentColor"
  />
  <path
    d="M16.7556 8.35985C16.4971 8.02355 16.2038 7.71542 15.8811 7.44086C15.7407 7.46881 15.6068 7.5372 15.4979 7.64603C15.205 7.93892 15.205 8.41379 15.4979 8.70669C15.7908 8.99958 16.2657 8.99958 16.5586 8.70669C16.658 8.60729 16.7237 8.48694 16.7556 8.35985Z"
    fill="currentColor"
  />
  <path
    d="M14.4373 6.76662C14.4906 6.71331 14.5342 6.65397 14.5681 6.59079C14.1273 6.38127 13.6569 6.22392 13.1649 6.12671C13.1317 6.35331 13.2022 6.59223 13.3766 6.76662C13.6695 7.05952 14.1444 7.05952 14.4373 6.76662Z"
    fill="currentColor"
  />
  <path
    d="M12.5257 7.64603C12.8186 7.93892 12.8186 8.41379 12.5257 8.70669C12.2328 8.99958 11.7579 8.99958 11.465 8.70669C11.1721 8.41379 11.1721 7.93892 11.465 7.64603C11.7579 7.35313 12.2328 7.35313 12.5257 7.64603Z"
    fill="currentColor"
  />
  <path
    d="M10.4044 9.61465C10.6973 9.90755 10.6973 10.3824 10.4044 10.6753C10.1115 10.9682 9.6366 10.9682 9.34371 10.6753C9.05081 10.3824 9.05081 9.90755 9.34371 9.61465C9.6366 9.32176 10.1115 9.32176 10.4044 9.61465Z"
    fill="currentColor"
  />
  <path
    d="M8.43574 12.7967C8.72863 12.5038 8.72863 12.0289 8.43574 11.736C8.14285 11.4431 7.66797 11.4431 7.37508 11.736C7.08218 12.0289 7.08218 12.5038 7.37508 12.7967C7.66797 13.0895 8.14285 13.0895 8.43574 12.7967Z"
    fill="currentColor"
  />
  <path
    d="M10.4044 13.6475C10.6973 13.9404 10.6973 14.4153 10.4044 14.7082C10.1115 15.001 9.6366 15.001 9.34371 14.7082C9.05081 14.4153 9.05081 13.9404 9.34371 13.6475C9.6366 13.3546 10.1115 13.3546 10.4044 13.6475Z"
    fill="currentColor"
  />
  <path
    d="M12.5257 12.7967C12.8186 12.5038 12.8186 12.0289 12.5257 11.736C12.2328 11.4431 11.7579 11.4431 11.465 11.736C11.1721 12.0289 11.1721 12.5038 11.465 12.7967C11.7579 13.0895 12.2328 13.0895 12.5257 12.7967Z"
    fill="currentColor"
  />
  <path
    d="M14.4373 9.61465C14.7302 9.90755 14.7302 10.3824 14.4373 10.6753C14.1444 10.9682 13.6695 10.9682 13.3766 10.6753C13.0837 10.3824 13.0837 9.90755 13.3766 9.61465C13.6695 9.32176 14.1444 9.32176 14.4373 9.61465Z"
    fill="currentColor"
  />
  <path
    d="M16.5586 12.7681C16.8515 12.4752 16.8515 12.0003 16.5586 11.7074C16.2657 11.4145 15.7908 11.4145 15.4979 11.7074C15.205 12.0003 15.205 12.4752 15.4979 12.7681C15.7908 13.061 16.2657 13.061 16.5586 12.7681Z"
    fill="currentColor"
  />
  <path
    d="M14.423 13.6902C14.7159 13.9831 14.7159 14.458 14.423 14.7509C14.1301 15.0438 13.6552 15.0438 13.3623 14.7509C13.0694 14.458 13.0694 13.9831 13.3623 13.6902C13.6552 13.3973 14.1301 13.3973 14.423 13.6902Z"
    fill="currentColor"
  />
  <path
    d="M12.3159 16.705C12.6088 16.4121 12.6088 15.9372 12.3159 15.6443C12.023 15.3514 11.5482 15.3514 11.2553 15.6443C10.9624 15.9372 10.9624 16.4121 11.2553 16.705C11.5482 16.9979 12.023 16.9979 12.3159 16.705Z"
    fill="currentColor"
  />
  <path
    fill-rule="evenodd"
    clip-rule="evenodd"
    d="M22 12C22 17.5228 17.5228 22 12 22C6.47715 22 2 17.5228 2 12C2 6.47715 6.47715 2 12 2C17.5228 2 22 6.47715 22 12ZM20 12C20 16.4183 16.4183 20 12 20C7.58172 20 4 16.4183 4 12C4 7.58172 7.58172 4 12 4C16.4183 4 20 7.58172 20 12Z"
    fill="currentColor"
  />
</svg>

<svg viewBox="0 0 24 24" xmlns="http://www.w3.org/2000/svg"><g><path d="M10.4 17.76c.01.01.02.02.04.04 -.26-.07-.5-.15-.74-.25 .24-.06.5.01.69.2Z"/><path d="M8.43 16.705c-.03.02-.06.05-.09.07 -.4-.31-.75-.66-1.06-1.04 .02-.04.05-.07.08-.1 .29-.3.76-.3 1.06 0 .29.29.29.76 0 1.06Z"/><path d="M6.37 13.64c.22.22.27.56.15.83 -.15-.32-.26-.64-.35-.98 .06.03.13.08.18.13Z"/><path d="M6.37 10.67c-.08.07-.17.13-.27.17 .07-.4.19-.78.34-1.14 .2.29.18.7-.09.96Z"/><path d="M7.37 8.7c-.09-.09-.15-.19-.19-.3 .26-.36.56-.68.9-.97 .12.03.24.09.33.19 .29.29.29.76 0 1.06 -.3.29-.77.29-1.07 0Z"/><path d="M9.34 6.76c-.04-.04-.06-.07-.09-.1 .42-.22.88-.39 1.35-.5 .01.21-.06.43-.22.59 -.3.29-.77.29-1.07 0Z"/><path d="M13.28 17.87c.3-.07.61-.16.89-.28 -.28-.11-.6-.06-.82.16 -.04.03-.07.06-.09.1Z"/><path d="M15.53 16.86c.4-.3.76-.64 1.08-1.03 -.02-.03-.04-.05-.07-.07 -.3-.3-.77-.3-1.07 0 -.3.29-.3.76 0 1.06 .01.01.02.02.03.03Z"/><path d="M17.36 14.69c.19-.4.35-.82.46-1.26 -.17.01-.33.09-.45.21 -.29.28-.3.75-.02 1.04Z"/><path d="M17.89 10.89c-.09-.47-.23-.92-.42-1.34 -.03.01-.05.03-.07.05 -.3.29-.3.76 0 1.06 .13.13.3.2.48.21Z"/><path d="M16.75 8.35c-.26-.34-.56-.65-.88-.92 -.15.02-.28.09-.39.2 -.3.29-.3.76 0 1.06 .29.29.76.29 1.06 0 .09-.1.16-.22.19-.35Z"/><path d="M14.43 6.76c.05-.06.09-.12.13-.18 -.45-.21-.92-.37-1.41-.47 -.04.22.03.46.21.63 .29.29.76.29 1.06 0Z"/><path d="M12.52 7.64c.29.29.29.76 0 1.06 -.3.29-.77.29-1.07 0 -.3-.3-.3-.77 0-1.07 .29-.3.76-.3 1.06 0Z"/><path d="M10.4 9.61c.29.29.29.76 0 1.06 -.3.29-.77.29-1.07 0 -.3-.3-.3-.77 0-1.07 .29-.3.76-.3 1.06 0Z"/><path d="M8.43 12.79c.29-.3.29-.77 0-1.07 -.3-.3-.77-.3-1.07 0 -.3.29-.3.76 0 1.06 .29.29.76.29 1.06 0Z"/><path d="M10.4 13.64c.29.29.29.76 0 1.06 -.3.29-.77.29-1.07 0 -.3-.3-.3-.77 0-1.07 .29-.3.76-.3 1.06 0Z"/><path d="M12.52 12.79c.29-.3.29-.77 0-1.07 -.3-.3-.77-.3-1.07 0 -.3.29-.3.76 0 1.06 .29.29.76.29 1.06 0Z"/><path d="M14.43 9.61c.29.29.29.76 0 1.06 -.3.29-.77.29-1.07 0 -.3-.3-.3-.77 0-1.07 .29-.3.76-.3 1.06 0Z"/><path d="M16.55 12.76c.29-.3.29-.77 0-1.07 -.3-.3-.77-.3-1.07 0 -.3.29-.3.76 0 1.06 .29.29.76.29 1.06 0Z"/><path d="M14.423 13.69c.29.29.29.76 0 1.06 -.3.29-.77.29-1.07 0 -.3-.3-.3-.77 0-1.07 .29-.3.76-.3 1.06 0Z"/><path d="M12.31 16.705c.29-.3.29-.77 0-1.07 -.3-.3-.77-.3-1.07 0 -.3.29-.3.76 0 1.06 .29.29.76.29 1.06 0Z"/><path fill-rule="evenodd" d="M22 12c0 5.52-4.48 10-10 10C6.47 22 2 17.52 2 12 2 6.47 6.47 2 12 2c5.52 0 10 4.47 10 10Zm-2 0c0 4.41-3.59 8-8 8 -4.42 0-8-3.59-8-8 0-4.42 3.58-8 8-8 4.41 0 8 3.58 8 8Z"/></g></svg>
